X: 1181
T: İşittim Ey
C: Şakir Ağa
O: Turkey
F: http://compmusic.upf.edu/node/140
N: huzzam--sarki--sarkidevrirevani--isittim_ey--sakir_aga
N: makam= huzzam
N: form= sarki
N: usul= sarkidevrirevani = 13/4
M: 13/4
L: 1/16
K: C _1/4B _3/4e ^3/4f 
Q: 1/4=72
%%MIDI tuningsystem comma53
B2c2 d8 d2_7/8e4d2 c4 a3g ^f2g4d2 e2f2 g2a2 _bagf fedc  | 
w:   | 
dcBc d2_7/8e4d2 d2^c4d2 e3d a2g^f c'_bag feed dedc de/f/ed d4 z4  | 
w:   | 
d4 g3^f gfg2 z2c2 cdcB cdcB c2d2 B3c d3_7/8e f2ed g3f gfed dccB  | 
w:   | 
B4 ^f_7/8eed e2f2 f2d4cB c3B f2ed d3/2e/dc c3/2d/cB B4 B^AGA B4 z4  | 
w:   | 
G4 B8 A3B cdcB B4 z4 A3B c3B A3_7/8e d3c B2AB dcBA  | 
w:   | 
G4 c2B2 c2d2 z2B4AG ABAG _7/8e2dc B2A4(3BAG G4 ag^fa g4 z4  | 
w:   | 
d4 g3^f gfg2 z2c2 cdcB cdcB c2d2 B3c d3_7/8e f2ed g3f gfed dccB  | 
w:   | 
B4 ^f_7/8eed e2f2 f2d4cB c3B f2ed d3/2e/dc c3/2d/cB B4 B^AGA B4 z4  | 
w:   | 
|


